fs/edit_prohibited_48_filled.svg

<svg viewBox="0 0 48 48" fill="none" xmlns="http://www.w3.org/2000/svg" height="1em" width="1em">
  <path d="M32.2061 6.02565C34.9033 3.32807 39.2767 3.32794 41.9741 6.02535C44.6713 8.72253 44.6715 13.0955 41.9744 15.7928L39.7685 17.999L30.0007 8.23125L32.2061 6.02565ZM28.2331 9.99913L8.03755 30.1971C7.27584 30.9589 6.73303 31.9115 6.46599 32.9552L4.03904 42.4402C3.9296 42.8679 4.05389 43.3216 4.36603 43.6338C4.67816 43.946 5.13183 44.0704 5.55956 43.9611L15.0458 41.5366C16.0904 41.2696 17.0439 40.7264 17.8062 39.964L20.245 37.5249C20.0843 36.7081 20 35.8639 20 35C20 27.8203 25.8203 22 33 22C33.8633 22 34.707 22.0842 35.5233 22.2447L38.0008 19.7669L28.2331 9.99913ZM33 46C39.0751 46 44 41.0751 44 35C44 28.9249 39.0751 24 33 24C26.9249 24 22 28.9249 22 35C22 41.0751 26.9249 46 33 46ZM33 43.5C31.1037 43.5 29.3524 42.879 27.9384 41.8293L39.8293 29.9384C40.879 31.3524 41.5 33.1037 41.5 35C41.5 39.6944 37.6944 43.5 33 43.5ZM38.0616 28.1707L26.1707 40.0616C25.121 38.6476 24.5 36.8963 24.5 35C24.5 30.3056 28.3056 26.5 33 26.5C34.8963 26.5 36.6476 27.121 38.0616 28.1707Z" fill="#212121"/>
</svg>

<svg viewBox="0 0 48 48" fill="none" xmlns="http://www.w3.org/2000/svg" height="1em" width="1em">
  <path d="M32.206 6.026a6.907 6.907 0 1 1 9.768 9.767l-2.205 2.206L30 8.231l2.205-2.205Zm-3.973 3.973L8.038 30.197a6.006 6.006 0 0 0-1.572 2.758L4.039 42.44a1.25 1.25 0 0 0 1.52 1.521l9.487-2.424a6.007 6.007 0 0 0 2.76-1.573l2.439-2.44A13.07 13.07 0 0 1 20 35c0-7.18 5.82-13 13-13 .863 0 1.707.084 2.523.245l2.478-2.478-9.768-9.768ZM33 46c6.075 0 11-4.925 11-11s-4.925-11-11-11-11 4.925-11 11 4.925 11 11 11Zm0-2.5a8.462 8.462 0 0 1-5.062-1.67L39.83 29.937A8.5 8.5 0 0 1 33 43.5Zm5.062-15.33L26.17 40.063a8.5 8.5 0 0 1 11.89-11.89Z" fill="#212121"/>
</svg>
